assets/images/microsoft-azure-logo.svg

<svg height="19" viewBox="0 0 24 19" width="24" xmlns="http://www.w3.org/2000/svg" xmlns:xlink="http://www.w3.org/1999/xlink"><mask id="a" height="15.8" maskUnits="userSpaceOnUse" width="17" x="0" y="0"><path d="m0 0h17v15.9h-17z" fill="#fff" fill-rule="evenodd"/></mask><mask id="b" height="16.7" maskUnits="userSpaceOnUse" width="13.9" x="0" y=".1"><path d="m0 .1h13.9v16.7h-13.9z" fill="#fff" fill-rule="evenodd"/></mask><g fill="#262626" fill-rule="evenodd" opacity=".5"><path d="m7.8.3c-1.1 2.2-2.2 4.4-3.3 6.5-.1.3 0 .4.1.6 1.9 2.2 3.9 4.5 5.8 6.7.1.1.2.2.3.4-3.6.3-7.1.8-10.7 1.2 5.6.1 11.3.1 17 .2-3-5.4-6-10.6-9-15.9-.1.1-.1.2-.2.3" mask="url(#a)" transform="translate(6.926582 2.674876)"/><path d="m13.9.1c-.1 0-.1 0-.2.1-2.5 2.1-4.9 4.1-7.4 6.2-.2.2-.4.4-.5.6-1.8 3-3.6 6-5.3 9-.2.3-.3.5-.5.8h.4c.6-.1 1.1-.1 1.7-.2.9-.1 1.7-.2 2.6-.3.3 0 .5-.1.6-.4 2.5-4.5 4.9-9 7.4-13.5.4-.7.8-1.5 1.2-2.3" mask="url(#b)" transform="translate(0 .001458)"/></g></svg>

<svg width="24px" height="19px" viewBox="0 0 24 19" version="1.1" xmlns="http://www.w3.org/2000/svg" xmlns:xlink="http://www.w3.org/1999/xlink">
    <!-- Generator: Sketch 51.2 (57519) - http://www.bohemiancoding.com/sketch -->
    <desc>Created with Sketch.</desc>
    <defs>
        <polygon id="path-1" points="0.0201356962 0.0391473418 17.0132051 0.0391473418 17.0132051 15.8582278 0.0201356962 15.8582278"></polygon>
        <polygon id="path-3" points="3.64556962e-05 0.0593012658 13.945677 0.0593012658 13.945677 16.8022366 3.64556962e-05 16.8022366"></polygon>
    </defs>
    <g id="desktop" stroke="none" stroke-width="1" fill="none" fill-rule="evenodd" opacity="0.5">
        <g id="01_Homepage" transform="translate(-981.000000, -3943.000000)">
            <g id="GetStarted" transform="translate(0.000000, 3522.000000)">
                <g id="Via-CLoud" transform="translate(953.000000, 71.000000)">
                    <g id="Button" transform="translate(0.000000, 328.000000)">
                        <g id="Cloud_Azure" transform="translate(28.000000, 22.000000)">
						<g id="Page-1">
							<g id="Group-3" transform="translate(6.926582, 2.674876)">
								<g id="Clip-2">
								</g>
								<defs>
									<filter id="Adobe_OpacityMaskFilter" filterUnits="userSpaceOnUse" x="0" y="0" width="17" height="15.8">
										<feColorMatrix  type="matrix" values="1 0 0 0 0  0 1 0 0 0  0 0 1 0 0  0 0 0 1 0"/>
									</filter>
								</defs>
								<mask maskUnits="userSpaceOnUse" x="0" y="0" width="17" height="15.8" id="mask-2">
									<g filter="url(#Adobe_OpacityMaskFilter)">
										<polygon id="path-1" fill="#FFFFFF" points="0,0 17,0 17,15.9 0,15.9 										"/>
									</g>
								</mask>
								<path id="Fill-1" mask="url(#mask-2)" fill="#262626" d="M7.8,0.3C6.7,2.5,5.6,4.7,4.5,6.8C4.4,7.1,4.5,7.2,4.6,7.4
									c1.9,2.2,3.9,4.5,5.8,6.7c0.1,0.1,0.2,0.2,0.3,0.4C7.1,14.8,3.6,15.3,0,15.7c0,0,0,0,0,0c5.6,0.1,11.3,0.1,17,0.2
									C14,10.5,11,5.3,8,0C7.9,0.1,7.9,0.2,7.8,0.3"/>
							</g>
							<g id="Group-6" transform="translate(0.000000, 0.001458)">
								<g id="Clip-5">
								</g>
								<defs>
									<filter id="Adobe_OpacityMaskFilter_1_" filterUnits="userSpaceOnUse" x="0" y="0.1" width="13.9" height="16.7">
										<feColorMatrix  type="matrix" values="1 0 0 0 0  0 1 0 0 0  0 0 1 0 0  0 0 0 1 0"/>
									</filter>
								</defs>
								<mask maskUnits="userSpaceOnUse" x="0" y="0.1" width="13.9" height="16.7" id="mask-4">
									<g filter="url(#Adobe_OpacityMaskFilter_1_)">
										<polygon id="path-3" fill="#FFFFFF" points="0,0.1 13.9,0.1 13.9,16.8 0,16.8 										"/>
									</g>
								</mask>
								<path id="Fill-4" mask="url(#mask-4)" fill="#262626" d="M13.9,0.1C13.9,0.1,13.9,0.1,13.9,0.1c-0.1,0-0.1,0-0.2,0.1
									c-2.5,2.1-4.9,4.1-7.4,6.2C6.1,6.6,5.9,6.8,5.8,7C4,10,2.2,13,0.5,16c-0.2,0.3-0.3,0.5-0.5,0.8c0.2,0,0.3,0,0.4,0
									c0.6-0.1,1.1-0.1,1.7-0.2c0.9-0.1,1.7-0.2,2.6-0.3c0.3,0,0.5-0.1,0.6-0.4c2.5-4.5,4.9-9,7.4-13.5
									C13.1,1.7,13.5,0.9,13.9,0.1"/>
							</g>
						</g>
					</g>
                    </g>
                </g>
            </g>
        </g>
    </g>
</svg>
